flaticon/music/earphones.svg

<svg xmlns="http://www.w3.org/2000/svg" width="32" height="32" viewBox="0 0 24 24">
    <path d="M 19.800781 11.199219 L 17.398438 11.199219 L 17.398438 10.800781 C 17.398438 9.695312 16.503906 8.800781 15.398438 8.800781 C 13.320312 8.800781 11.445312 10.035156 10.621094 11.949219 C 10.46875 12.3125 10.425781 12.71875 10.507812 13.101562 C 10.570312 13.398438 10.601562 13.699219 10.601562 14 C 10.601562 14.300781 10.570312 14.601562 10.507812 14.898438 C 10.425781 15.28125 10.46875 15.6875 10.621094 16.050781 C 11.445312 17.964844 13.320312 19.199219 15.398438 19.199219 C 16.503906 19.199219 17.398438 18.304688 17.398438 17.199219 L 17.398438 16.800781 L 19.128906 16.800781 C 19.277344 16.800781 19.398438 16.921875 19.398438 17.070312 L 19.398438 21.328125 C 19.398438 21.917969 19.878906 22.398438 20.472656 22.398438 L 21 22.398438 L 21 24 L 21.800781 24 L 21.800781 22.398438 L 22.328125 22.398438 C 22.917969 22.398438 23.398438 21.917969 23.398438 21.328125 L 23.398438 14.800781 C 23.398438 12.816406 21.785156 11.199219 19.800781 11.199219 Z M 16.601562 17.199219 C 16.601562 17.863281 16.0625 18.398438 15.398438 18.398438 C 13.640625 18.398438 12.054688 17.355469 11.359375 15.734375 C 11.265625 15.523438 11.242188 15.285156 11.289062 15.0625 C 11.363281 14.714844 11.398438 14.355469 11.398438 14 C 11.398438 13.644531 11.363281 13.285156 11.289062 12.9375 C 11.242188 12.714844 11.265625 12.476562 11.359375 12.265625 C 12.054688 10.644531 13.640625 9.601562 15.398438 9.601562 C 16.0625 9.601562 16.601562 10.136719 16.601562 10.800781 Z M 17.398438 12 L 18.199219 12 L 18.199219 16 L 17.398438 16 Z M 22.601562 21.328125 C 22.601562 21.476562 22.476562 21.601562 22.328125 21.601562 L 20.472656 21.601562 C 20.320312 21.601562 20.199219 21.476562 20.199219 21.328125 L 20.199219 17.070312 C 20.199219 16.480469 19.71875 16 19.128906 16 L 19 16 L 19 12 L 19.800781 12 C 21.34375 12 22.601562 13.257812 22.601562 14.800781 Z M 22.601562 21.328125"/>
    <path d="M 13.378906 7.25 C 13.53125 6.886719 13.574219 6.480469 13.492188 6.097656 C 13.429688 5.804688 13.398438 5.5 13.398438 5.199219 C 13.398438 4.898438 13.429688 4.597656 13.492188 4.300781 C 13.574219 3.921875 13.53125 3.511719 13.378906 3.152344 C 12.554688 1.238281 10.679688 0 8.601562 0 C 7.496094 0 6.601562 0.898438 6.601562 2 L 6.601562 2.398438 L 4.199219 2.398438 C 2.214844 2.398438 0.601562 4.015625 0.601562 6 L 0.601562 12.527344 C 0.601562 13.121094 1.082031 13.601562 1.671875 13.601562 L 2.199219 13.601562 L 2.199219 24 L 3 24 L 3 13.601562 L 3.527344 13.601562 C 4.121094 13.601562 4.601562 13.121094 4.601562 12.527344 L 4.601562 8.273438 C 4.601562 8.121094 4.722656 8 4.871094 8 L 6.601562 8 L 6.601562 8.398438 C 6.601562 9.503906 7.496094 10.398438 8.601562 10.398438 C 10.679688 10.398438 12.554688 9.164062 13.378906 7.25 Z M 3.800781 8.273438 L 3.800781 12.527344 C 3.800781 12.679688 3.679688 12.800781 3.527344 12.800781 L 1.671875 12.800781 C 1.523438 12.800781 1.398438 12.679688 1.398438 12.527344 L 1.398438 6 C 1.398438 4.457031 2.65625 3.199219 4.199219 3.199219 L 5 3.199219 L 5 7.199219 L 4.871094 7.199219 C 4.28125 7.199219 3.800781 7.679688 3.800781 8.273438 Z M 5.800781 7.199219 L 5.800781 3.199219 L 6.601562 3.199219 L 6.601562 7.199219 Z M 8.601562 9.601562 C 7.9375 9.601562 7.398438 9.0625 7.398438 8.398438 L 7.398438 2 C 7.398438 1.339844 7.9375 0.800781 8.601562 0.800781 C 10.359375 0.800781 11.945312 1.847656 12.640625 3.464844 C 12.734375 3.675781 12.757812 3.914062 12.710938 4.136719 C 12.636719 4.488281 12.601562 4.84375 12.601562 5.199219 C 12.601562 5.554688 12.636719 5.914062 12.710938 6.265625 C 12.757812 6.484375 12.734375 6.722656 12.640625 6.933594 C 11.945312 8.554688 10.359375 9.601562 8.601562 9.601562 Z M 8.601562 9.601562"/>
</svg>

<svg xmlns="http://www.w3.org/2000/svg" width="32" height="32" viewBox="0 0 24 24">
    <path d="M19.8 11.2h-2.402v-.4c0-1.105-.894-2-2-2a5.198 5.198 0 0 0-4.777 3.15c-.152.363-.195.769-.113 1.152a4.359 4.359 0 0 1 0 1.796c-.082.383-.04.79.113 1.153a5.198 5.198 0 0 0 4.777 3.148c1.106 0 2-.894 2-2v-.398h1.73a.27.27 0 0 1 .27.27v4.257c0 .59.48 1.07 1.075 1.07H21V24h.8v-1.602h.528c.59 0 1.07-.48 1.07-1.07v-6.527a3.604 3.604 0 0 0-3.597-3.602zm-3.198 6a1.2 1.2 0 0 1-1.204 1.198 4.39 4.39 0 0 1-4.039-2.664 1.105 1.105 0 0 1-.07-.671A5.11 5.11 0 0 0 11.4 14a5.11 5.11 0 0 0-.11-1.063 1.105 1.105 0 0 1 .07-.671 4.39 4.39 0 0 1 4.04-2.664 1.2 1.2 0 0 1 1.203 1.199zm.796-5.2h.801v4h-.8zm5.204 9.328a.277.277 0 0 1-.274.274h-1.855a.274.274 0 0 1-.274-.274V17.07c0-.59-.48-1.07-1.07-1.07H19v-4h.8c1.544 0 2.802 1.258 2.802 2.8zm0 0"/>
    <path d="M13.379 7.25c.152-.363.195-.77.113-1.152a4.331 4.331 0 0 1 0-1.797c.082-.38.04-.79-.113-1.149A5.201 5.201 0 0 0 8.602 0c-1.106 0-2 .898-2 2v.398H4.199A3.604 3.604 0 0 0 .602 6v6.527c0 .594.48 1.075 1.07 1.075h.527V24H3V13.602h.527c.594 0 1.075-.48 1.075-1.075V8.273A.27.27 0 0 1 4.872 8h1.73v.398c0 1.106.894 2 2 2a5.198 5.198 0 0 0 4.777-3.148zM3.8 8.273v4.254a.272.272 0 0 1-.274.274H1.672a.274.274 0 0 1-.274-.274V6c0-1.543 1.258-2.8 2.801-2.8H5v4h-.129c-.59 0-1.07.48-1.07 1.073zm2-1.074v-4h.8v4zm2.8 2.403c-.664 0-1.203-.54-1.203-1.204V2c0-.66.54-1.2 1.204-1.2a4.396 4.396 0 0 1 4.039 2.665c.093.21.117.45.07.672a5.174 5.174 0 0 0 0 2.129c.047.218.023.457-.07.668A4.393 4.393 0 0 1 8.6 9.602zm0 0"/>
</svg>
